packages/ui-icons/svg/Line/post-to-sis.svg

<svg viewBox="0 0 1920 1920" version="1.1" xmlns="http://www.w3.org/2000/svg">
    <path d="M922.314667,1188.96 C943.114667,1168.16 976.928,1168.16 997.728,1188.96 L997.728,1188.96 L1264.39467,1455.62667 L1188.98133,1531.04 L1013.30133,1355.46667 L1013.30133,1920.05333 L906.741333,1920.05333 L906.741333,1355.46667 L731.061333,1531.04 L655.648,1455.62667 Z M508.928,220.405333 C597.461333,197.045333 713.941333,233.098667 784.768,306.058667 L784.768,306.058667 L708.394667,380.405333 C664.661333,335.498667 587.434667,310.005333 535.914667,323.658667 C510.528,330.272 495.594667,344.992 489.088,369.632 C471.808,435.125333 603.008,482.485333 604.394667,483.018667 C690.474667,511.178667 826.048,594.272 786.794667,726.325333 C768.341333,788.405333 723.114667,831.285333 659.434667,846.858667 C641.728,851.232 623.061333,853.365333 604.074667,853.365333 C527.488,853.365333 444.821333,819.125333 388.394667,761.098667 L388.394667,761.098667 L464.768,686.752 C507.968,731.232 582.421333,756.298667 633.834667,743.285333 C660.821333,736.672 676.928,721.632 684.501333,696.032 C703.914667,631.072 572.288,584.778667 571.008,584.245333 C485.781333,556.085333 351.274667,473.525333 385.941333,342.432 C402.261333,280.245333 446.101333,236.938667 508.928,220.405333 Z M1255.54133,220.405333 C1344.07467,197.045333 1460.55467,233.098667 1531.38133,306.058667 L1531.38133,306.058667 L1455.008,380.405333 C1411.27467,335.498667 1334.048,310.005333 1282.528,323.658667 C1257.14133,330.272 1242.208,344.992 1235.70133,369.632 C1218.42133,435.125333 1349.62133,482.485333 1351.008,483.018667 C1437.088,511.178667 1572.66133,594.272 1533.408,726.325333 C1514.95467,788.405333 1469.728,831.285333 1406.048,846.858667 C1388.34133,851.232 1369.67467,853.365333 1350.688,853.365333 C1274.10133,853.365333 1191.43467,819.125333 1135.008,761.098667 L1135.008,761.098667 L1211.38133,686.752 C1254.58133,731.232 1329.03467,756.298667 1380.448,743.285333 C1407.43467,736.672 1423.54133,721.632 1431.11467,696.032 C1450.528,631.072 1318.90133,584.778667 1317.62133,584.245333 C1232.39467,556.085333 1097.888,473.525333 1132.55467,342.432 C1148.87467,280.245333 1192.71467,236.938667 1255.54133,220.405333 Z M1013.33333,213.333333 L1013.33333,853.333333 L906.666667,853.333333 L906.666667,213.333333 L1013.33333,213.333333 Z M1653.30133,906.666667 C1653.30133,936 1629.30133,960 1599.968,960 L319.968,960 C290.634667,960 266.634667,936 266.634667,906.666667 L266.634667,160 C266.634667,130.666667 290.634667,106.666667 319.968,106.666667 L1599.968,106.666667 C1629.30133,106.666667 1653.30133,130.666667 1653.30133,160 L1653.30133,906.666667 Z M1599.968,-2.84217094e-14 L319.968,-2.84217094e-14 C231.754667,-2.84217094e-14 159.968,71.7866667 159.968,160 L159.968,906.666667 C159.968,994.88 231.754667,1066.66667 319.968,1066.66667 L1599.968,1066.66667 C1688.18133,1066.66667 1759.968,994.88 1759.968,906.666667 L1759.968,160 C1759.968,71.7866667 1688.18133,-2.84217094e-14 1599.968,-2.84217094e-14 L1599.968,-2.84217094e-14 Z" stroke="none" stroke-width="1" fill-rule="evenodd"/>
</svg>

<svg viewBox="0 0 1920 1920" version="1.1" xmlns="http://www.w3.org/2000/svg">
    <path d="M906.667 853.333v-640h106.666v640H906.667zm15.648 335.627c20.8-20.8 54.613-20.8 75.413 0l266.667 266.667-75.414 75.413-175.68-175.573v564.586h-106.56v-564.586l-175.68 175.573-75.413-75.413 266.667-266.667zm-317.92-705.941c86.08 28.16 221.653 111.253 182.4 243.306-18.454 62.08-63.68 104.96-127.36 120.534-17.707 4.373-36.374 6.506-55.36 6.506-76.587 0-159.254-34.24-215.68-92.266l76.373-74.347c43.2 44.48 117.653 69.547 169.067 56.533 26.986-6.613 43.093-21.653 50.666-47.253 19.414-64.96-112.213-111.253-113.493-111.787-85.227-28.16-219.733-110.72-185.067-241.813 16.32-62.187 60.16-105.493 122.987-122.027 88.533-23.36 205.013 12.694 275.84 85.654l-76.373 74.346c-43.734-44.906-120.96-70.4-172.48-56.746-25.387 6.613-40.32 21.333-46.827 45.973-17.28 65.493 113.92 112.853 115.307 113.387zm746.613 0c86.08 28.16 221.653 111.253 182.4 243.306-18.453 62.08-63.68 104.96-127.36 120.534-17.707 4.373-36.373 6.506-55.36 6.506-76.587 0-159.253-34.24-215.68-92.266l76.373-74.347c43.2 44.48 117.654 69.547 169.067 56.533 26.987-6.613 43.093-21.653 50.667-47.253 19.413-64.96-112.214-111.253-113.494-111.787-85.226-28.16-219.733-110.72-185.066-241.813 16.32-62.187 60.16-105.493 122.986-122.027 88.534-23.36 205.014 12.694 275.84 85.654l-76.373 74.346c-43.733-44.906-120.96-70.4-172.48-56.746-25.387 6.613-40.32 21.333-46.827 45.973-17.28 65.493 113.92 112.853 115.307 113.387zm302.293 423.648c0 29.333-24 53.333-53.333 53.333h-1280c-29.333 0-53.333-24-53.333-53.333V160c0-29.333 24-53.333 53.333-53.333h1280c29.333 0 53.333 24 53.333 53.333v746.667zM1599.968 0h-1280c-88.213 0-160 71.787-160 160v746.667c0 88.213 71.787 160 160 160h1280c88.213 0 160-71.787 160-160V160c0-88.213-71.787-160-160-160z" stroke="none" stroke-width="1" fill-rule="evenodd"/>
</svg>
